X: 2
T: AY ME, OR THE SYMPHONY
B: "Old English Country Dances", Frank Kidson ed., William Reeves pub., London 1890
Z: 2010-9-26 John Chambers <jc:trillian.mit.edu>
M: C|
L: 1/8
K: C
g4 e4 | dcBA G2AB | c2c2 d3d | e6 ee |
e2fg a2cc | c2de f2AA | BGe2 d3c- | c8 :|
A4AB c2Bc | dcBA G2ee | e2de fge>d |
d6 gg | a2e2 ef^ff | g2dc B2gg | a2e2 d3c- | c8 |]


%%sep 1 1 500

%%sep 1 1 500

